src/assets/icons/phone-mobile.svg

<svg width="24" height="24" viewBox="0 0 24 24" fill="none" xmlns="http://www.w3.org/2000/svg">
  <path d="M9.75 7.75V17.75C9.75 18.8546 10.6454 19.75 11.75 19.75H17.75C18.8546 19.75 19.75 18.8546 19.75 17.75V7.75C19.75 6.64543 18.8546 5.75 17.75 5.75H11.75C10.6454 5.75 9.75 6.64543 9.75 7.75Z" stroke="#314158" stroke-width="1.5" stroke-linecap="round"/>
  <circle cx="14.75" cy="17" r="1" fill="#314158"/>
</svg>

<svg fill="none" viewBox="0 0 24 24"><path stroke="currentColor" stroke-linecap="round" stroke-width="1.5" d="M9.75 7.75v10a2 2 0 0 0 2 2h6a2 2 0 0 0 2-2v-10a2 2 0 0 0-2-2h-6a2 2 0 0 0-2 2Z"/><circle cx="14.75" cy="17" r="1" fill="currentColor"/></svg>
